Adwaita++/actions/22/go-last.svg

<svg height="22" width="22" xmlns="http://www.w3.org/2000/svg">
  <g fill="#444" transform="translate(3 3)">
    <circle cx="14" cy="8" r="2"/>
    <path d="m0 9h7l-3.5 3.5 1.5 1.5 6-6-6-6-1.5 1.5 3.5 3.5h-7z"/>
  </g>
</svg>

<svg xmlns="http://www.w3.org/2000/svg" width="22" height="22" version="1.1">
 <defs>
  <style id="current-color-scheme" type="text/css">
   .ColorScheme-Text { color:#444444; } .ColorScheme-Highlight { color:#4285f4; }
  </style>
 </defs>
 <g transform="matrix(1,0,0,1,3,3)">
  <circle class="ColorScheme-Text" cx="14" cy="8" r="2" style="fill:currentColor"/>
  <path class="ColorScheme-Text" d="M 0,9 H 7 L 3.5,12.5 5,14 11,8 5,2 3.5,3.5 7,7 H 0 Z" style="fill:currentColor"/>
 </g>
</svg>
